src/assets/images/cursor/cursor_carousel.svg

<svg xmlns="http://www.w3.org/2000/svg" width="100" height="100" fill="none" xmlns:v="https://vecta.io/nano"><circle cx="50" cy="50" r="49.5" stroke="#0c0c0c"/><path d="M80 50l-5-2.887v5.773L80 50zm-60 0l5 2.887v-5.773L20 50zm55.5-.5H50v1h25.5v-1zm-25.5 0H24.5v1H50v-1zm.5.5v-4h-1v4h1zm-1 0v4h1v-4h-1z" fill="#0c0c0c"/></svg>

<svg width="100" height="100" viewBox="0 0 100 100" fill="none" xmlns="http://www.w3.org/2000/svg">
<circle cx="50" cy="50" r="49.5" stroke="#0C0C0C"/>
<path d="M80 50L75 47.1132L75 52.8867L80 50ZM20 50L25 52.8867L25 47.1132L20 50ZM75.5 49.5L50 49.5L50 50.5L75.5 50.5L75.5 49.5ZM50 49.5L24.5 49.5L24.5 50.5L50 50.5L50 49.5ZM50.5 50L50.5 46L49.5 46L49.5 50L50.5 50ZM49.5 50L49.5 54L50.5 54L50.5 50L49.5 50Z" fill="#0C0C0C"/>
</svg>
